icon/gr/vulnerability.svg

<svg xmlns="http://www.w3.org/2000/svg" width="24" height="24"><path fill="none" stroke="#000" stroke-width="2" d="M12 0v24V0ZM0 12h24H0Zm17 0c0-2.757-2.243-5-5-5s-5 2.243-5 5 2.243 5 5 5 5-2.243 5-5Zm-5 9c-4.962 0-9-4.037-9-9s4.038-9 9-9 9 4.037 9 9-4.038 9-9 9Z"/></svg>

<svg xmlns="http://www.w3.org/2000/svg" viewBox="0 0 24 24" height="1em" width="1em">
  <path fill="none" stroke="#000" stroke-width="2" d="M12,0 L12,24 L12,0 Z M0,12 L24,12 L0,12 Z M17,12 C17,9.243 14.757,7 12,7 C9.243,7 7,9.243 7,12 C7,14.757 9.243,17 12,17 C14.757,17 17,14.757 17,12 L17,12 Z M12,21 C7.038,21 3,16.963 3,12 C3,7.037 7.038,3 12,3 C16.962,3 21,7.037 21,12 C21,16.963 16.962,21 12,21 L12,21 Z"/>
</svg>
